X:151
T:Humours of Tulla
Z: id:dc-reel-139
M:C
L:1/8
K:D Major
fe|d2Ad BdAB|d2fd edBA|d2Ad BdAd|Bdef g2:|!
fg|aff2 dff2|aff2gee2|aff2 dfed|Bdef g2:|!